X:1
T:Dixie TUBA
L:1/8
M:2/4
K:Bb
V:1 bass nm="BaccidentalFlat Tuba" snm="BaccidentalFlat Tu."
V:1
 F,,D,, |: B,,,B,,, B,,,/C,,/D,,/E,,/ | F,,F,, F,,D,, | G,,G,, G,,>F,, | G,,>F,, G,,/A,,/B,,/C,/ | %5
 D,3 B,,/F,,/ | B,,3 F,,/D,,/ | F,,3 C,,/D,,/ |1 B,,,2 z F,,/D,,/ :|2 B,,,2 z F,, |: B,,D, C,>B,, | %11
 G,, B,,2 G,, | C,3 G,, | C,3 F,, | B,,D, C,>B,, | G,,A,, B,,>G,, | F,,D,, B,,D,, | D,, C,,2 D,, | %18
 B,,,3 D,, | C,,3 G,, | F,,D,, B,,>D, | C, B,,2 D,, | B,,,3 D,, | C,,3 G,, | F,,D,, D,>C, |1 %25
 C, B,,2 F,, :|2 C, B,,3 |] z4 | z4 | z4 | z4 |] %31

